X:2
T:Walzer CF 2+ (wz07543)
S:Hanny Christen. Bd.IV  Aargau, Basel I. S.218 (wz07543) orig. Bb,Eb
S:Aus dem Repertoire der Dorfmusik Oberwil.  S.201-221
S:Ãœberliefert durch Gotti Bannier (1876-1947)
%%MIDI program 21
R:Walzer
M:3/4
L:1/4
K:Cmaj%%MIDI gchordon
("C"g2^g) | (a2b) | (a2_a) | g3 | (.e.e.e) | ("Am/C"e2f) | "D7"e3 | "G7"d3 | ("C"g2^g) | (a2b) | 
(a2_a) | g3 | ("G7"f.f.f) | (g2f) |1 (f3 | "C"e3) :|2 "C"e3 | eze |: ("G7"d2f) | (f2g) | ("C"e3 | 
e)zG | "G7"G3 | (A2B) | ("C"c2d) | e2e | ("G7"d2f) | (f2g) | ("C"e3 | e)zG | ("G7"G2A) | 
(B2d) | "C"c3 |1 cze :|2 czc |: [K:Fmaj] ("F"f2e) | "Bb"d2^c | ("F"cAc) | (f2d) | (cAc) | (f2d) | 
("Bb"d3 | d)zd | (g2f) | ("C7"e2d) | ("F"d3 | c2)c | ("C7"c2d) | d/2d/2 eg |1 ("F"f3 | f)zc :|2 
("F"f3 | f)zd |: "Bb"d3 | fed | ("F"c2f) | a2B | (B2c) | (d2e) | (f2g) | a2d | 
d3 | fed | (c2f) | a2B | ("C7"B2c) | (d2e) |1 ("F"f3 | f)zd :|2 ("F"f3 | f) zz |] 
% wz07543
% March 6, 2017

